X: 1
T:Old Mother Goose -- SlipJig
M:9/8
L:1/8
R:slip jig
B:Ryan's Mammoth Collection
N:86 440
Z:Contributed by Ray Davies,  ray:davies99.freeserve.co.uk
K:G
v(g2d) d2c (Bc)d | e2A ABG FED | (g2d) d2c (Bc)d | efg fef g3  |
 (g2d) d2c (Bc)d | e2A ABG FED | (g2d) d2c (Bc)d | efg fef g3  |]
B2c dec dcB | B2d efd edc | B2c dec dcB | c2B AGF G3  |
B2c ded dcB | B2d efd edc | B2c dec dcB | c2B AGF G3  |]
